X: 104
T: By the Side of the White Rock
M: 6/8
L: 1/8
Q: 1/4=27
B: George Petrie Collection, 1855, 1882
K: Eb % 3 flats
V: 1
z3 z2
B | e2e e2f/g/4a/4 | g2f e2B |
B2A GAB | _d3 B2B | e2e e2a |
g2f e2f | =dcB {B}A2F | E3-E2B |
BB/c/B/A/ GAB | _d2e/_d/ B2B |
e2e efg | f2=d B2B | e2e e2{fg}a |
g2f e2f | dcB BAF | E3-E2 |]

